X:816
T:Hughie Shortie's
R:reel
C:Johnny Wilmot
A:Cape Breton
D:Nomos
Z:id:hn-reel-816
M:C|
L:1/8
K:G
~G3B cABA|GABd g2fg|ec~c2 dB~B2|cAAB AFDF|
GABd cABA|GABd g2fg|ec~c2 dB~B2|cAFA G4:|
|:g2dg bgag|ec~c2 efge|dB~B2 gBdB|1 cAAG ABcd|
g2dg bgag|ec~c2 efge|dB~B2 gBdB|cAFA G4:|
[2 cAAB AFDF|ECEG DB,DG|GABd ~g3f|ec~c2 dB~B2|cAFA G4||
